X:0386
T:The Doctor.
M:6/8
L:1/8
Q:3/8=120
I: :: ::
Z:Jack Campin * www.campin.me.uk * 2009
K:G
B/c/|dBG GFG|ABc B2c|dgd dgd|dcB ABc|
     dBG GFG|ABc B2c|dge dBd|cBA G2:|
B/c/|dgd dgd|dgd dcB|cde eag|fef def|
     gfe dcB|ABc B2c|dBG EcB|AGF G2:|
<end>
<start>
